client/src/data/flag-icon-css-master/flags/1x1/kn.svg

<svg viewBox="0 0 512 512" xmlns="http://www.w3.org/2000/svg" xmlns:xlink="http://www.w3.org/1999/xlink"><clipPath id="a"><path d="m151.7-.3h745.1v745h-745.1z"/></clipPath><g clip-path="url(#a)" fill-rule="evenodd" transform="matrix(.68714 0 0 .68714 -104.2 .2)"><path d="m-5.3 0h1073.5v744h-1073.5z" fill="#ffe900"/><path d="m-5.8 0 1.2 536.4 835.3-536.8z" fill="#35a100"/><path d="m1069.5 744-1.9-557.7-842.6 558.2 844.5-.4z" fill="#c70000"/><path d="m-5.3 576.9.7 167.9 182.3-.3 890.3-596.9-1-146-180.1-1.6-892.3 576.9z"/><path d="m818 269-64.2-2.2-25.3 60.2-14.3-61.5-64.2-2.2 55.4-35.7-14.4-61.6 48.5 39.4 55.3-35.9-25.4 60.2zm-400.5 260.6-64.3-2.3-25.2 60.2-14.3-61.5-64.3-2.2 55.4-35.8-14.4-61.4 48.5 39.4 55.3-35.9-25.3 60.1z" fill="#fff"/></g></svg>

<svg xmlns="http://www.w3.org/2000/svg" id="flag-icon-css-kn" viewBox="0 0 512 512">
  <defs>
    <clipPath id="kn-a">
      <path fill-opacity=".7" d="M151.7-.3h745.1v745H151.7z"/>
    </clipPath>
  </defs>
  <g fill-rule="evenodd" clip-path="url(#kn-a)" transform="translate(-104.2 .2) scale(.68714)">
    <path fill="#ffe900" d="M-5.3 0h1073.5v744H-5.3z"/>
    <path fill="#35a100" d="M-5.8 0l1.2 536.4L830.7-.4-5.8 0z"/>
    <path fill="#c70000" d="M1069.5 744l-1.9-557.7L225 744.5l844.5-.4z"/>
    <path d="M-5.3 576.9l.7 167.9 182.3-.3L1068 147.6l-1-146L886.9 0-5.4 576.9z"/>
    <path fill="#fff" d="M818 269l-64.2-2.2-25.3 60.2-14.3-61.5-64.2-2.2 55.4-35.7L691 166l48.5 39.4 55.3-35.9-25.4 60.2zM417.5 529.6l-64.3-2.3-25.2 60.2-14.3-61.5-64.3-2.2 55.4-35.8-14.4-61.4 48.5 39.4 55.3-35.9-25.3 60.1z"/>
  </g>
</svg>
